X: 21997
T: Kitty Tyrell
R: waltz
M: 3/4
K: Gmajor
G3/2F/2|:D3 E G2|G2 A2 B2|B2 g2 f2|e g3 e2|
d3 B G2|B A3 G2|1 E4 G3/2E/2:|2 G4 de/2f/2||
g3 f g2|e d3 B2|g3 f g2|e g3 e2|d3 B G2|
B A3 G2|E4 G3/2E/2|D3 E G2|G2 A2 B2|
B2 g2 f2|d3 B G2|B A3 G2|E4 (3AGF|G4||

